X: 20965
T: Judique Hall
R: jig
M: 6/8
K: Fmajor
|:g|fef dcB|AFF F2 B|AF[Cc] [A,A][Cc]F|BGG G2 [ge]|
fef d2 B|AFF F2 B|Acf bgb|aff f2:|
|:g|afc Acf|bgd Bdg|afc Acf|BGG G2 g|
afc A2 f|bgd B2 g|1 afc BGc|AFF F2:|2 afc BGb|aff f2||

